apps/16/kdeconnect.svg

<?xml version="1.0" encoding="UTF-8" standalone="no"?>
<!-- Created with Inkscape (http://www.inkscape.org/) -->

<svg
   width="16"
   height="16"
   version="1.1"
   viewBox="0 0 16 16"
   id="svg22"
   sodipodi:docname="kdeconnect.svg"
   inkscape:version="1.1.2 (0a00cf5339, 2022-02-04)"
   xmlns:inkscape="http://www.inkscape.org/namespaces/inkscape"
   xmlns:sodipodi="http://sodipodi.sourceforge.net/DTD/sodipodi-0.dtd"
   xmlns:xlink="http://www.w3.org/1999/xlink"
   xmlns="http://www.w3.org/2000/svg"
   xmlns:svg="http://www.w3.org/2000/svg">
  <sodipodi:namedview
     id="namedview24"
     pagecolor="#ffffff"
     bordercolor="#666666"
     borderopacity="1.0"
     inkscape:showpageshadow="2"
     inkscape:pageopacity="0.0"
     inkscape:pagecheckerboard="0"
     inkscape:deskcolor="#d1d1d1"
     showgrid="false"
     inkscape:zoom="38.834304"
     inkscape:cx="1.3647728"
     inkscape:cy="11.034059"
     inkscape:window-width="3440"
     inkscape:window-height="1359"
     inkscape:window-x="0"
     inkscape:window-y="0"
     inkscape:window-maximized="1"
     inkscape:current-layer="g634-1-7"
     inkscape:pageshadow="2" />
  <defs
     id="defs12">
    <linearGradient
       id="linearGradient1005-3-3"
       x1="5.2535"
       x2="9.3823996"
       y1="15.383"
       y2="2.9421"
       gradientTransform="matrix(0.99999,0,0,0.99999,1.632,-0.61743)"
       gradientUnits="userSpaceOnUse">
      <stop
         stop-color="#fa8200"
         offset="0"
         id="stop2" />
      <stop
         stop-color="#ff9600"
         offset=".36953"
         id="stop4" />
      <stop
         stop-color="#ffb400"
         offset="1"
         id="stop6" />
    </linearGradient>
    <filter
       id="filter4014"
       x="-0.062499933"
       y="-0.057692993"
       width="1.1249999"
       height="1.115386"
       color-interpolation-filters="sRGB">
      <feGaussianBlur
         stdDeviation="1.093751"
         id="feGaussianBlur9" />
    </filter>
    <linearGradient
       inkscape:collect="always"
       xlink:href="#linearGradient3487"
       id="linearGradient3403"
       gradientUnits="userSpaceOnUse"
       x1="6.9491749"
       y1="4.5549412"
       x2="11.215498"
       y2="59.052471" />
    <linearGradient
       id="linearGradient3487">
      <stop
         style="stop-color:#32373c;stop-opacity:1"
         offset="0"
         id="stop3481" />
      <stop
         id="stop3483"
         offset="0.36804965"
         style="stop-color:#1a1a1a;stop-opacity:1" />
      <stop
         style="stop-color:#31363b;stop-opacity:1"
         offset="1"
         id="stop3485" />
    </linearGradient>
    <linearGradient
       inkscape:collect="always"
       xlink:href="#linearGradient20604"
       id="linearGradient20558"
       gradientUnits="userSpaceOnUse"
       x1="25.802212"
       y1="20.373846"
       x2="25.111048"
       y2="58.912758" />
    <linearGradient
       id="linearGradient20604">
      <stop
         id="stop20598"
         offset="0"
         style="stop-color:#3d3d3d;stop-opacity:1" />
      <stop
         style="stop-color:#000000;stop-opacity:1"
         offset="0.61772454"
         id="stop20600" />
      <stop
         id="stop20602"
         offset="1"
         style="stop-color:#3d3d3d;stop-opacity:1" />
    </linearGradient>
    <filter
       inkscape:collect="always"
       style="color-interpolation-filters:sRGB"
       id="filter20720"
       x="-0.017024755"
       y="-0.016457183"
       width="1.0340491"
       height="1.0329144">
      <feGaussianBlur
         inkscape:collect="always"
         stdDeviation="0.14745661"
         id="feGaussianBlur20722" />
    </filter>
    <linearGradient
       gradientTransform="translate(0.36067797,-0.13016949)"
       xlink:href="#linearGradient4555"
       id="linearGradient4557"
       x1="43.499737"
       y1="64.011795"
       x2="44.141731"
       y2="0.30621234"
       gradientUnits="userSpaceOnUse" />
    <linearGradient
       id="linearGradient4555">
      <stop
         style="stop-color:#141618;stop-opacity:1"
         offset="0"
         id="stop4551" />
      <stop
         id="stop4559"
         offset="0.51820582"
         style="stop-color:#686868;stop-opacity:1" />
      <stop
         style="stop-color:#31363b;stop-opacity:1"
         offset="1"
         id="stop4553" />
    </linearGradient>
    <filter
       style="color-interpolation-filters:sRGB"
       id="filter4601"
       x="-0.030244955"
       width="1.0604899"
       y="-0.030100647"
       height="1.0602013">
      <feGaussianBlur
         stdDeviation="0.014790289"
         id="feGaussianBlur4603" />
    </filter>
    <linearGradient
       inkscape:collect="always"
       xlink:href="#linearGradient4434"
       id="linearGradient981"
       gradientUnits="userSpaceOnUse"
       gradientTransform="matrix(0.15451338,0,0,0.16259838,-58.859836,-78.790992)"
       x1="439.57001"
       y1="502.79999"
       x2="429.57001"
       y2="512.79999" />
    <linearGradient
       id="linearGradient4434"
       x1="439.57001"
       x2="429.57001"
       y1="502.79999"
       y2="512.79999"
       gradientTransform="matrix(0.17723,0,0,0.17723,-65.364,-82.795)"
       gradientUnits="userSpaceOnUse">
      <stop
         stop-color="#2e3440"
         offset="0"
         id="stop5" />
      <stop
         stop-opacity="0"
         offset="1"
         id="stop7" />
    </linearGradient>
  </defs>
  <rect
     style="display:inline;fill:#000000;fill-opacity:1;fill-rule:evenodd;stroke:none;stroke-width:0.299684;stroke-linejoin:round;stroke-miterlimit:7.8"
     id="rect1192"
     width="13.593232"
     height="13.795916"
     x="1.5342854"
     y="1.4032776"
     ry="0"
     inkscape:label="arriere" />
  <g
     id="g1262"
     transform="matrix(0.56578011,0,0,0.56578011,-40.326503,-1.3779245)">
    <g
       stroke-width="0.20247"
       id="g634-1-7"
       transform="matrix(2.517342,0,0,2.5350371,74.052352,4.0022347)">
      <path
         d="M 6.5890419,4.5899606 7.5161396,5.5655695 8.5977253,4.4273896 7.6706276,3.451781 Z"
         fill="url(#linearGradient4434)"
         fill-rule="evenodd"
         opacity="0.9"
         id="path632-3-0"
         style="display:inline;fill:url(#linearGradient981);stroke-width:0.181077" />
      <path
         inkscape:label="Capa 1"
         inkscape:connector-curvature="0"
         style="fill:#939393;fill-opacity:1;stroke-width:0.0859047"
         id="rect4231"
         d="m 4.1741003,2.0840597 c -0.235878,0 -0.425773,0.1885692 -0.425773,0.4228009 0,0.2342318 0.189895,0.422801 0.425773,0.422801 0.2358779,0 0.425773,-0.1885692 0.425773,-0.422801 0,-0.2342317 -0.1898951,-0.4228009 -0.425773,-0.4228009 z m 2.9804104,0 L 6.302965,2.9296616 7.5802838,4.1980644 6.302965,5.4664672 7.1545107,6.3120691 8.4318296,5.0436663 9.2833754,4.1980644 Z M 3.109668,4.6208653 c -0.3538173,0 -0.6386594,0.2828539 -0.6386594,0.6342015 0,0.3513476 0.2848421,0.6342014 0.6386594,0.6342014 0.3538173,0 0.6386593,-0.2828538 0.6386593,-0.6342014 0,-0.3513476 -0.284842,-0.6342015 -0.6386593,-0.6342015 z m 1.9159781,2.5368056 c -0.4717566,0 -0.8515458,0.3771385 -0.8515458,0.8456019 0,0.4684631 0.3797892,0.8456019 0.8515458,0.8456019 0.4717566,0 0.8515458,-0.3771388 0.8515458,-0.8456019 0,-0.4684634 -0.3797892,-0.8456019 -0.8515458,-0.8456019 z" />
    </g>
  </g>
  <path
     style="display:inline;mix-blend-mode:normal;fill:url(#linearGradient3403);fill-opacity:1;stroke:url(#linearGradient20558);stroke-width:1.16242;stroke-linecap:butt;stroke-linejoin:round;stroke-miterlimit:4;stroke-dasharray:none;stroke-opacity:1;filter:url(#filter20720)"
     d="M 4.7043071,3.9814882 4.6913695,60.80196 H 58.59546 l 1.022155,-2.866369 c 0,0 -23.87537,0.766388 -32.844441,-4.140386 C 16.257548,48.042344 11.401114,4.0978197 11.401114,4.0978197 Z"
     id="path1686"
     sodipodi:nodetypes="ccccscc"
     transform="matrix(0.24285547,0,0,0.24285547,0.54487683,0.43635041)"
     inkscape:label="folder" />
  <rect
     style="display:inline;fill:none;fill-opacity:1;stroke:url(#linearGradient4557);stroke-width:3.71366;stroke-linejoin:round;stroke-miterlimit:7.8;stroke-dasharray:none;stroke-opacity:0.995146;filter:url(#filter4601)"
     id="rect4539"
     width="62.566689"
     height="62.866646"
     x="1.0323594"
     y="0.59551275"
     ry="6.2447233"
     rx="5.8029528"
     transform="matrix(0.22750281,0,0,0.2270391,0.95291348,0.92708743)"
     inkscape:label="contour" />
</svg>

<svg width="16" height="16" version="1.1" viewBox="0 0 16 16" xmlns="http://www.w3.org/2000/svg" xmlns:xlink="http://www.w3.org/1999/xlink">
<defs>
<linearGradient id="linearGradient3403" x1="6.9492" x2="11.215" y1="4.5549" y2="59.052" gradientUnits="userSpaceOnUse">
<stop style="stop-color:#32373c" offset="0"/>
<stop style="stop-color:#1a1a1a" offset=".36805"/>
<stop style="stop-color:#31363b" offset="1"/>
</linearGradient>
<linearGradient id="linearGradient20558" x1="25.802" x2="25.111" y1="20.374" y2="58.913" gradientUnits="userSpaceOnUse">
<stop style="stop-color:#3d3d3d" offset="0"/>
<stop offset=".61772"/>
<stop style="stop-color:#3d3d3d" offset="1"/>
</linearGradient>
<linearGradient id="linearGradient4557" x1="43.5" x2="44.142" y1="64.012" y2=".30621" gradientTransform="translate(.36068 -.13017)" gradientUnits="userSpaceOnUse">
<stop style="stop-color:#141618" offset="0"/>
<stop style="stop-color:#686868" offset=".51821"/>
<stop style="stop-color:#31363b" offset="1"/>
</linearGradient>
<linearGradient id="linearGradient981" x1="439.57" x2="429.57" y1="502.8" y2="512.8" gradientTransform="matrix(.15451 0 0 .1626 -58.86 -78.791)" gradientUnits="userSpaceOnUse" xlink:href="#linearGradient4434"/>
<linearGradient id="linearGradient4434" x1="439.57" x2="429.57" y1="502.8" y2="512.8" gradientTransform="matrix(.17723 0 0 .17723 -65.364 -82.795)" gradientUnits="userSpaceOnUse">
<stop stop-color="#2e3440" offset="0"/>
<stop stop-opacity="0" offset="1"/>
</linearGradient>
</defs>
<rect x="1.5343" y="1.4033" width="13.593" height="13.796" ry="0" style="fill-rule:evenodd"/>
<g transform="matrix(.56578 0 0 .56578 -40.327 -1.3779)">
<g transform="matrix(2.5173 0 0 2.535 74.052 4.0022)" stroke-width=".20247">
<path d="m6.589 4.59 0.9271 0.97561 1.0816-1.1382-0.9271-0.97561z" fill="url(#linearGradient4434)" fill-rule="evenodd" opacity=".9" style="fill:url(#linearGradient981);stroke-width:.18108"/>
<path d="m4.1741 2.0841c-0.23588 0-0.42577 0.18857-0.42577 0.4228 0 0.23423 0.1899 0.4228 0.42577 0.4228 0.23588 0 0.42577-0.18857 0.42577-0.4228 0-0.23423-0.1899-0.4228-0.42577-0.4228zm2.9804 0-0.85155 0.8456 1.2773 1.2684-1.2773 1.2684 0.85155 0.8456 2.1289-2.114zm-4.0448 2.5368c-0.35382 0-0.63866 0.28285-0.63866 0.6342s0.28484 0.6342 0.63866 0.6342 0.63866-0.28285 0.63866-0.6342-0.28484-0.6342-0.63866-0.6342zm1.916 2.5368c-0.47176 0-0.85155 0.37714-0.85155 0.8456 0 0.46846 0.37979 0.8456 0.85155 0.8456s0.85155-0.37714 0.85155-0.8456c0-0.46846-0.37979-0.8456-0.85155-0.8456z" style="fill:#939393;stroke-width:.085905"/>
</g>
</g>
<path transform="matrix(.24286 0 0 .24286 .54488 .43635)" d="m4.7043 3.9815-0.012938 56.82h53.904l1.0222-2.8664s-23.875 0.76639-32.844-4.1404c-10.516-5.7529-15.372-49.697-15.372-49.697z" style="fill:url(#linearGradient3403);mix-blend-mode:normal;stroke-linejoin:round;stroke-width:1.1624;stroke:url(#linearGradient20558)"/>
<rect transform="matrix(.2275 0 0 .22704 .95291 .92709)" x="1.0324" y=".59551" width="62.567" height="62.867" rx="5.803" ry="6.2447" style="fill:none;stroke-linejoin:round;stroke-miterlimit:7.8;stroke-opacity:.99515;stroke-width:3.7137;stroke:url(#linearGradient4557)"/>
</svg>
